; generated by Slic3r 1.1.7 on 2014-09-27 at 17:42:14

; perimeters extrusion width = 0.40mm
; infill extrusion width = 0.67mm
; solid infill extrusion width = 0.67mm
; top infill extrusion width = 0.67mm

G21 ; set units to millimeters
M107
M104 S215 ; set temperature
G28 X0 Y0
G29
M109 S215 ; wait for temperature to be reached
G90 ; use absolute coordinates
G92 E0
M82 ; use absolute distances for extrusion
G1 F1800.000 E-1.00000
G92 E0
G1 Z0.200 F7800.000
G1 X22.375 Y28.737 F7800.000
G1 E1.00000 F1800.000
G1 X23.830 Y27.603 E1.09056 F630.000
G1 X28.334 Y24.961 E1.34685
G1 X30.178 Y24.181 E1.44514
G1 X35.212 Y22.794 E1.70143
G1 X37.195 Y22.519 E1.79972
G1 X37.404 Y22.518 E1.80998
G1 X42.416 Y22.482 E2.05601
G1 X44.403 Y22.729 E2.15431
G1 X49.456 Y24.045 E2.41059 F630.000
G1 X51.311 Y24.798 E2.50889
G1 X51.493 Y24.902 E2.51914
G1 X55.851 Y27.377 E2.76517
G1 X57.449 Y28.585 E2.86347
G1 X61.167 Y32.250 E3.11975
G1 X62.397 Y33.831 E3.21805
G1 X65.039 Y38.334 E3.47433
G1 X65.819 Y40.178 E3.57263
G1 X67.206 Y45.212 E3.82891
G1 X67.481 Y47.195 E3.92721
G1 X67.518 Y52.416 E4.18350
G1 X67.271 Y54.403 E4.28180
G1 X65.955 Y59.456 E4.53808
G1 X65.202 Y61.312 E4.63638
G1 X62.623 Y65.851 E4.89266
G1 X61.415 Y67.449 E4.99096
G1 X57.750 Y71.167 E5.24724
G1 X56.169 Y72.397 E5.34554
G1 X51.666 Y75.039 E5.60182
G1 X49.822 Y75.819 E5.70012
G1 X44.788 Y77.206 E5.95640
G1 X42.805 Y77.481 E6.05470
G1 X42.596 Y77.482 E6.06495
G1 X37.584 Y77.518 E6.31098
G1 X35.597 Y77.271 E6.40928
G1 X30.544 Y75.955 E6.66557
G1 X28.688 Y75.202 E6.76386
G1 X24.149 Y72.623 E7.02015
G1 X22.551 Y71.415 E7.11845
G1 X18.833 Y67.750 E7.37473
G1 X17.603 Y66.169 E7.47303
G1 X14.961 Y61.666 E7.72931
G1 X14.181 Y59.822 E7.82761
G1 X12.794 Y54.788 E8.08389
G1 X12.519 Y52.805 E8.18219
G1 X12.484 Y47.793 E8.42822
G1 X12.482 Y47.584 E8.43847
G1 X12.729 Y45.597 E8.53677
G1 X14.045 Y40.544 E8.79306
G1 X14.798 Y38.688 E8.89135
G1 X17.377 Y34.149 E9.14764
G1 X18.585 Y32.551 E9.24593
G1 X22.250 Y28.833 E9.50222
G1 X22.327 Y28.773 E9.50701
G1 X22.667 Y29.209 F7800.000
G1 X24.112 Y28.084 E9.59695 F630.000
G1 X28.615 Y25.441 E9.85323
G1 X30.326 Y24.718 E9.94439
G1 X35.360 Y23.331 E10.20067
G1 X37.199 Y23.076 E10.29183
G1 X37.408 Y23.075 E10.30208
G1 X42.420 Y23.039 E10.54811
G1 X44.263 Y23.269 E10.63928
G1 X49.316 Y24.584 E10.89556 F630.000
G1 X51.036 Y25.283 E10.98672
G1 X51.218 Y25.386 E10.99697
G1 X55.576 Y27.861 E11.24300
G1 X57.058 Y28.981 E11.33416
G1 X60.775 Y32.647 E11.59044
G1 X61.916 Y34.112 E11.68160
G1 X64.559 Y38.615 E11.93789
G1 X65.282 Y40.326 E12.02905
G1 X66.669 Y45.360 E12.28533
G1 X66.924 Y47.199 E12.37649
G1 X66.961 Y52.420 E12.63277
G1 X66.731 Y54.263 E12.72393
G1 X65.416 Y59.316 E12.98021
G1 X64.717 Y61.036 E13.07138
G1 X62.139 Y65.576 E13.32766
G1 X61.019 Y67.058 E13.41882
G1 X57.353 Y70.775 E13.67510
G1 X55.888 Y71.916 E13.76626
G1 X51.385 Y74.559 E14.02254
G1 X49.674 Y75.282 E14.11370
G1 X44.640 Y76.669 E14.36999
G1 X42.801 Y76.924 E14.46115
G1 X37.580 Y76.961 E14.71743
G1 X35.737 Y76.731 E14.80859
G1 X30.684 Y75.416 E15.06487
G1 X28.964 Y74.717 E15.15603
G1 X24.424 Y72.139 E15.41231
G1 X22.942 Y71.019 E15.50348
G1 X19.225 Y67.353 E15.75976
G1 X18.084 Y65.888 E15.85092
G1 X15.441 Y61.385 E16.10720
G1 X14.718 Y59.674 E16.19836
G1 X13.387 Y54.842 E16.44439
G1 X13.331 Y54.640 E16.45464
G1 X13.076 Y52.801 E16.54580
G1 X13.039 Y47.580 E16.80209
G1 X13.269 Y45.737 E16.89325
G1 X14.532 Y40.886 E17.13928
G1 X14.584 Y40.684 E17.14953
G1 X15.283 Y38.964 E17.24069
G1 X17.861 Y34.424 E17.49697
G1 X18.981 Y32.942 E17.58813
G1 X22.622 Y29.250 E17.84269
G1 X23.019 Y29.641 F7800.000
G1 X24.394 Y28.564 E17.92842 F630.000
G1 X28.897 Y25.922 E18.18470
G1 X30.474 Y25.255 E18.26872
G1 X35.508 Y23.869 E18.52501
G1 X37.203 Y23.633 E18.60903
G1 X42.424 Y23.596 E18.86531
G1 X44.123 Y23.808 E18.94934
G1 X49.175 Y25.123 E19.20562 F630.000
G1 X50.761 Y25.767 E19.28964
G1 X50.943 Y25.870 E19.29989
G1 X55.301 Y28.346 E19.54592
G1 X56.666 Y29.378 E19.62994
G1 X60.384 Y33.044 E19.88623
G1 X61.436 Y34.394 E19.97025
G1 X64.078 Y38.897 E20.22653
G1 X64.745 Y40.474 E20.31055
G1 X66.131 Y45.508 E20.56683
G1 X66.367 Y47.203 E20.65086
G1 X66.404 Y52.424 E20.90714
G1 X66.192 Y54.123 E20.99116
G1 X64.877 Y59.175 E21.24744
G1 X64.233 Y60.761 E21.33147
G1 X61.654 Y65.301 E21.58775
G1 X60.622 Y66.667 E21.67177
G1 X56.956 Y70.384 E21.92805
G1 X55.606 Y71.436 E22.01208
G1 X51.103 Y74.078 E22.26836
G1 X49.526 Y74.745 E22.35238
G1 X44.492 Y76.131 E22.60866
G1 X42.797 Y76.367 E22.69268
G1 X37.576 Y76.404 E22.94897
G1 X35.877 Y76.192 E23.03299
G1 X30.825 Y74.877 E23.28927
G1 X29.239 Y74.233 E23.37329
G1 X29.057 Y74.130 E23.38354
G1 X24.699 Y71.654 E23.62957
G1 X23.333 Y70.622 E23.71360
G1 X19.616 Y66.956 E23.96988
G1 X18.564 Y65.606 E24.05390
G1 X15.922 Y61.103 E24.31018
G1 X15.255 Y59.526 E24.39421
G1 X13.924 Y54.694 E24.64024
G1 X13.869 Y54.492 E24.65049
G1 X13.633 Y52.797 E24.73451
G1 X13.596 Y47.576 E24.99079
G1 X13.808 Y45.877 E25.07482
G1 X15.071 Y41.027 E25.32085
G1 X15.123 Y40.825 E25.33110
G1 X15.767 Y39.239 E25.41512
G1 X18.346 Y34.699 E25.67140
G1 X19.378 Y33.333 E25.75542
G1 X22.977 Y29.683 E26.00704
G1 F1800.000 E25.00704
G92 E0
G1 X38.243 Y40.469 F7800.000
G1 E1.00000 F1800.000
G1 X38.199 Y40.938 E1.02313 F315.000
G1 X37.969 Y41.091 E1.03668
G1 X37.708 Y41.225 E1.05110
G1 X37.098 Y41.467 E1.08328
G1 X36.450 Y41.667 E1.11656
G1 X35.900 Y41.811 E1.14450
G1 X34.926 Y42.030 E1.19348
G1 X32.717 Y42.481 E1.30415
G1 X31.566 Y42.778 E1.36254
G1 F1800.000 E0.36254
G92 E0
G1 X38.739 Y50.247 F7800.000
G1 E1.00000 F1800.000
G1 X37.609 Y50.213 E1.05550 F315.000
G1 X36.252 Y50.139 E1.12218
G1 X34.991 Y50.026 E1.18433
G1 X34.124 Y49.917 E1.22726
G1 X33.368 Y49.794 E1.26481
G1 X32.348 Y49.582 E1.31599
G1 X31.567 Y49.375 E1.35564
G1 X31.033 Y49.207 E1.38312
G1 X30.366 Y48.954 E1.41813
G1 X29.657 Y48.618 E1.45664
G1 X29.045 Y48.238 E1.49200
G1 X28.653 Y47.927 E1.51656
G1 X28.385 Y47.652 E1.53542
G1 X28.220 Y47.442 E1.54852
G1 X27.980 Y47.041 E1.57144
G1 X28.189 Y46.666 E1.59254
G1 F1800.000 E0.59254
G92 E0
G1 X21.164 Y44.837 F7800.000
G1 E1.00000 F1800.000
G1 X21.749 Y42.591 E1.11391 F315.000
G1 X24.289 Y38.120 E1.36631
G1 X27.899 Y34.458 E1.61872
G1 X32.334 Y31.856 E1.87112
G1 X37.291 Y30.490 E2.12353
G1 X42.433 Y30.453 E2.37593
G1 X42.597 Y30.496 E2.38424
G1 X47.409 Y31.749 E2.62833 F315.000
G1 X51.880 Y34.289 E2.88074
G1 X55.542 Y37.899 E3.13314
G1 X58.236 Y42.490 E3.39444
G1 X58.187 Y42.490 E3.39683
G1 X59.510 Y47.291 E3.64128
G1 X59.547 Y52.433 E3.89368
G1 X58.251 Y57.409 E4.14608
G1 X55.711 Y61.880 E4.39849
G1 X52.101 Y65.542 E4.65089
G1 X47.667 Y68.144 E4.90328
G1 X42.709 Y69.510 E5.15570
G1 X37.567 Y69.547 E5.40811
G1 X32.591 Y68.251 E5.66051
G1 X28.120 Y65.711 E5.91291
G1 X24.458 Y62.101 E6.16532
G1 X21.856 Y57.666 E6.41772
G1 X20.490 Y52.709 E6.67013
G1 X20.453 Y47.567 E6.92253
G1 X21.149 Y44.895 E7.05808
G1 F1800.000 E6.05808
G92 E0
G1 X42.814 Y30.832 F7800.000
G1 X42.741 Y31.109 F7800.000
G1 E1.00000 F1800.000
G1 X47.198 Y32.270 E1.22604 F630.000
G1 X51.541 Y34.737 E1.47124
G1 X55.099 Y38.244 E1.71644
G1 X57.627 Y42.552 E1.96165
G1 X58.954 Y47.368 E2.20685
G1 X58.989 Y52.364 E2.45206
G1 X57.730 Y57.198 E2.69726
G1 X55.263 Y61.541 E2.94247
G1 X54.079 Y62.743 E3.02528
G1 X45.719 Y56.404 E3.54024
G1 X45.204 Y57.374 E3.59416
G1 X44.997 Y57.885 E3.62122
G1 X44.628 Y58.658 E3.66325
G1 X45.556 Y59.873 E3.73832
G1 X44.860 Y60.549 E3.78591
G1 X43.642 Y59.605 E3.86156
G1 X42.381 Y60.148 E3.92892
G1 X42.262 Y60.229 E3.93602
G1 X42.097 Y60.387 E3.94721
G1 X41.972 Y60.579 E3.95850
G1 X41.886 Y60.914 E3.97547
G1 X41.481 Y63.188 E4.08885
G1 X44.523 Y63.352 E4.23835
G1 X48.687 Y63.383 E4.44278
G1 X51.382 Y63.352 E4.57506
G1 X52.186 Y63.320 E4.61455
G1 X53.604 Y63.224 E4.68432
G1 X51.756 Y65.099 E4.81352
G1 X47.448 Y67.627 E5.05872
G1 X42.632 Y68.954 E5.30393
G1 X37.636 Y68.989 E5.54913
G1 X32.802 Y67.730 E5.79433
G1 X32.719 Y67.683 E5.79905
G1 X28.459 Y65.263 E6.03954
G1 X24.901 Y61.756 E6.28474
G1 X22.373 Y57.448 E6.52995
G1 X21.072 Y52.724 E6.77044
G1 X21.046 Y52.632 E6.77515
G1 X21.011 Y47.636 E7.02035
G1 X22.270 Y42.802 E7.26556
G1 X24.689 Y38.542 E7.50605
G1 X24.737 Y38.459 E7.51076
G1 X28.244 Y34.901 E7.75597
G1 X32.552 Y32.373 E8.00117
G1 X37.368 Y31.046 E8.24638
G1 X37.464 Y31.046 E8.25109
G1 X42.364 Y31.011 E8.49158 F630.000
G1 X42.683 Y31.094 E8.50780
G1 F1800.000 E7.50780
G92 E0
G1 X30.151 Y53.678 F7800.000
G1 E1.00000 F1800.000
G1 X30.960 Y54.040 E1.04349 F630.000
G1 X31.730 Y54.316 E1.08367
G1 X32.539 Y54.543 E1.12489
G1 X33.553 Y54.753 E1.17575
G1 X34.737 Y56.100 E1.26374
G1 X34.157 Y56.587 E1.30093
G1 X33.054 Y56.193 E1.35840
G1 X32.074 Y55.773 E1.41074
G1 X31.619 Y55.543 E1.43579
G1 X30.844 Y55.083 E1.48001
G1 X30.516 Y54.849 E1.49978
G1 X29.962 Y54.373 E1.53564
G1 X29.730 Y54.126 E1.55227
G1 X29.384 Y53.672 E1.58031
G1 X29.613 Y53.409 E1.59741
G1 X29.964 Y53.590 E1.61674
G1 X30.096 Y53.653 E1.62396 F630.000
G1 F1800.000 E0.62396
G92 E0
G1 X41.511 Y59.797 F7800.000
G1 E1.00000 F1800.000
G1 X41.816 Y59.797 E1.01500 F630.000
G1 X41.214 Y60.723 E1.06923 F630.000
G1 X41.093 Y59.797 E1.11506
G1 X41.451 Y59.797 E1.13264
G1 F1800.000 E0.13264
G92 E0
G1 X37.174 Y56.053 F7800.000
G1 E1.00000 F1800.000
G1 X37.320 Y56.001 E1.00761 F630.000
G1 X37.785 Y55.649 E1.03623
G1 X37.767 Y56.211 E1.06385
G1 X37.786 Y56.742 E1.08994 F630.000
G1 X36.848 Y56.169 E1.14393
G1 X37.118 Y56.073 E1.15798
G1 F1800.000 E0.15798
G92 E0
G1 X41.342 Y52.105 F7800.000
G1 E1.00000 F1800.000
G1 X41.536 Y52.101 E1.00952 F630.000
G1 X41.720 Y52.689 E1.03976
G1 X41.049 Y52.677 E1.07269 F630.000
G1 X41.201 Y52.108 E1.10157
G1 X41.282 Y52.106 E1.10553
G1 F1800.000 E0.10553
G92 E0
G1 X47.363 Y33.004 F7800.000
G1 E1.00000 F1800.000
G1 X51.203 Y35.185 E1.21675 F630.000
G1 X54.655 Y38.589 E1.45475
G1 X57.109 Y42.771 E1.69275
G1 X58.397 Y47.446 E1.93076
G1 X58.431 Y52.294 E2.16876
G1 X57.210 Y56.986 E2.40677
G1 X54.815 Y61.203 E2.64477
G1 X54.024 Y62.005 E2.70006
G1 X52.925 Y61.178 E2.76758
G1 X46.480 Y56.284 E3.16480
G1 X48.975 Y54.041 E3.32948
G1 X51.823 Y51.422 E3.51941
G1 X55.020 Y48.331 E3.73767
G1 X49.340 Y48.814 E4.01746
G1 X46.063 Y49.033 E4.17868
G1 X44.711 Y49.103 E4.24513
G1 X41.716 Y49.211 E4.39222
G1 X40.153 Y49.188 E4.46896
G1 X40.153 Y37.109 E5.06185
G1 X38.597 Y38.841 E5.17615
G1 X37.896 Y38.531 E5.21375
G1 X37.250 Y38.322 E5.24711
G1 X36.482 Y38.120 E5.28608
G1 X34.569 Y37.673 E5.38253
G1 X34.033 Y37.512 E5.40998
G1 X33.412 Y37.270 E5.44270
G1 X32.984 Y37.037 E5.46660
G1 X32.791 Y36.886 E5.47865
G1 X32.233 Y35.931 E5.53294
G1 X30.089 Y36.486 E5.64168
G1 X30.048 Y38.415 E5.73640
G1 X30.051 Y42.118 E5.91817
G1 X29.632 Y42.296 E5.94051
G1 X29.140 Y42.536 E5.96738
G1 X28.682 Y42.798 E5.99327
G1 X28.257 Y43.083 E6.01838
G1 X27.867 Y43.398 E6.04297
G1 X27.515 Y43.747 E6.06732
G1 X27.205 Y44.135 E6.09172
G1 X26.948 Y44.568 E6.11640
G1 X26.775 Y45.000 E6.13925
G1 X26.668 Y45.453 E6.16211
G1 X26.008 Y45.547 E6.19486
G1 X26.009 Y48.602 E6.34480
G1 X26.042 Y49.242 E6.37629
G1 X26.103 Y49.635 E6.39582
G1 X26.262 Y50.156 E6.42254
G1 X26.499 Y50.679 E6.45075
G1 X26.715 Y51.041 E6.47141
G1 X27.169 Y51.663 E6.50924
G1 X26.005 Y51.877 E6.56734
G1 X26.005 Y54.801 E6.71086
G1 X26.041 Y55.741 E6.75705
G1 X26.090 Y56.134 E6.77648
G1 X26.168 Y56.499 E6.79481
G1 X26.390 Y57.170 E6.82947
G1 X26.538 Y57.501 E6.84732
G1 X26.711 Y57.823 E6.86525
G1 X27.124 Y58.434 E6.90145
G1 X27.620 Y59.000 E6.93836
G1 X27.896 Y59.267 E6.95723
G1 X28.505 Y59.774 E6.99611
G1 X28.837 Y60.016 E7.01630
G1 X29.455 Y60.422 E7.05261
G1 X30.635 Y61.091 E7.11919
G1 X31.893 Y61.702 E7.18780
G1 X32.507 Y61.963 E7.22059
G1 X33.104 Y62.188 E7.25189
G1 X34.391 Y62.594 E7.31813
G1 X35.792 Y62.946 E7.38903
G1 X36.894 Y63.170 E7.44422
G1 X38.309 Y63.403 E7.51464
G1 X41.709 Y63.808 E7.68269
G1 X41.700 Y63.759 E7.68516
G1 X44.507 Y63.909 E7.82312
G1 X48.130 Y63.944 E8.00099
G1 X50.691 Y63.926 E8.12672
G1 X52.173 Y63.882 E8.19948
G1 X51.411 Y64.655 E8.25278
G1 X47.229 Y67.109 E8.49078
G1 X42.554 Y68.397 E8.72878
G1 X37.706 Y68.431 E8.96679
G1 X33.014 Y67.210 E9.20479
G1 X28.797 Y64.815 E9.44280
G1 X25.345 Y61.411 E9.68080
G1 X22.891 Y57.229 E9.91880
G1 X21.603 Y52.554 E10.15681
G1 X21.569 Y47.706 E10.39481
G1 X22.790 Y43.014 E10.63282
G1 X25.185 Y38.797 E10.87082
G1 X28.589 Y35.345 E11.10882
G1 X32.771 Y32.891 E11.34683
G1 X37.446 Y31.603 E11.58483
G1 X42.294 Y31.569 E11.82284
G1 X46.986 Y32.790 E12.06084
G1 X47.311 Y32.975 E12.07915 F630.000
G1 F1800.000 E11.07915
G92 E0
G1 X36.765 Y57.424 F7800.000
G1 E1.00000 F1800.000
G1 X36.843 Y57.471 E1.00446 F315.000
G1 X36.943 Y57.607 E1.01275
G1 X37.314 Y58.486 E1.05960
G1 X37.034 Y58.879 E1.08331
G1 X36.298 Y59.822 E1.14203
G1 X36.694 Y60.281 E1.17180
G1 X37.137 Y60.739 E1.20307
G1 X37.469 Y61.045 E1.22525
G1 X37.690 Y61.207 E1.23869
G1 X39.032 Y60.193 E1.32125
G1 X39.434 Y60.399 E1.34345
G1 X40.081 Y60.658 E1.37768
G1 X40.236 Y61.825 E1.43546
G1 X40.355 Y62.530 E1.47059
G1 X38.456 Y62.298 E1.56453
G1 X37.736 Y62.186 E1.60029
G1 X36.385 Y61.935 E1.66776
G1 X35.351 Y61.697 E1.71982
G1 X34.376 Y61.430 E1.76946
G1 X33.476 Y61.138 E1.81587
G1 X32.639 Y60.812 E1.85998
G1 X31.750 Y60.406 E1.90795
G1 X30.860 Y59.948 E1.95705
G1 X30.302 Y59.632 E1.98853
G1 X29.796 Y59.319 E2.01777
G1 X29.181 Y58.887 E2.05465
G1 X28.650 Y58.445 E2.08857
G1 X28.200 Y57.988 E2.12004
G1 X27.830 Y57.511 E2.14968
G1 X27.675 Y57.263 E2.16402
G1 X27.539 Y57.010 E2.17815
G1 X27.326 Y56.487 E2.20587
G1 X27.215 Y56.087 E2.22624
G1 X27.167 Y55.803 E2.24038
G1 X27.123 Y55.046 E2.27757
G1 X27.118 Y52.806 E2.38756
G1 X27.691 Y52.700 E2.41616 F315.000
G1 X28.002 Y53.478 E2.45726
G1 X28.189 Y53.852 E2.47777
G1 X28.398 Y54.205 E2.49794
G1 X28.631 Y54.541 E2.51801
G1 X28.891 Y54.860 E2.53819
G1 X29.178 Y55.165 E2.55875
G1 X29.494 Y55.457 E2.57990
G1 X29.843 Y55.738 E2.60186
G1 X30.224 Y56.009 E2.62483
G1 X30.641 Y56.271 E2.64899
G1 X31.586 Y56.775 E2.70158
G1 X32.191 Y57.045 E2.73408
G1 X32.884 Y57.321 E2.77071
G1 X33.586 Y57.572 E2.80730
G1 X34.401 Y57.821 E2.84912
G1 X35.227 Y57.143 E2.90156
G1 X36.709 Y57.402 E2.97543
G1 F1800.000 E1.97543
G92 E0
G1 X26.933 Y52.451 F7800.000
G1 X26.902 Y52.279 F7800.000
G1 E1.00000 F1800.000
G1 X28.247 Y52.032 E1.06712 F630.000
G1 X28.080 Y52.156 E1.07732
G1 X28.509 Y53.246 E1.13480 F630.000
G1 X28.678 Y53.585 E1.15342
G1 X28.867 Y53.904 E1.17161
G1 X29.077 Y54.206 E1.18965
G1 X29.310 Y54.493 E1.20782
G1 X29.570 Y54.769 E1.22641
G1 X29.859 Y55.035 E1.24569
G1 X30.179 Y55.294 E1.26590
G1 X30.926 Y55.792 E1.30998
G1 X31.356 Y56.034 E1.33422
G1 X32.004 Y56.355 E1.36971
G1 X32.625 Y56.622 E1.40289
G1 X33.541 Y56.967 E1.45090
G1 X34.279 Y57.208 E1.48904
G1 X35.071 Y56.546 E1.53972
G1 X36.763 Y56.838 E1.62397
G1 X37.012 Y56.922 E1.63689
G1 X37.198 Y57.036 E1.64760
G1 X37.366 Y57.216 E1.65971
G1 X37.450 Y57.372 E1.66840
G1 X37.948 Y58.553 E1.73130
G1 X37.510 Y59.174 E1.76860
G1 X37.012 Y59.806 E1.80813
G1 X37.697 Y60.505 E1.85617
G1 X38.984 Y59.537 E1.93524
G1 X39.634 Y59.878 E1.97126
G1 X40.591 Y60.259 E2.02184
G1 X40.796 Y61.801 E2.09821
G1 X41.032 Y63.169 E2.16635
G1 X38.383 Y62.851 E2.29735
G1 X36.995 Y62.622 E2.36637
G1 X36.270 Y62.480 E2.40263
G1 X35.215 Y62.237 E2.45577
G1 X33.899 Y61.866 E2.52289
G1 X32.715 Y61.446 E2.58455
G1 X32.120 Y61.193 E2.61631
G1 X31.199 Y60.754 E2.66637
G1 X30.302 Y60.275 E2.71631
G1 X29.748 Y59.949 E2.74785
G1 X28.843 Y59.331 E2.80166
G1 X28.273 Y58.856 E2.83806
G1 X28.017 Y58.609 E2.85550
G1 X27.565 Y58.093 E2.88920
G1 X27.193 Y57.543 E2.92178
G1 X27.039 Y57.255 E2.93781
G1 X26.906 Y56.960 E2.95372
G1 X26.749 Y56.509 E2.97716
G1 X26.670 Y56.204 E2.99262
G1 X26.614 Y55.872 E3.00915
G1 X26.572 Y55.291 E3.03773
G1 X26.562 Y52.341 E3.18252
G1 X26.843 Y52.290 E3.19654
G1 F1800.000 E2.19654
G92 E0
G1 X38.986 Y55.528 F7800.000
G1 E1.00000 F1800.000
G1 X39.120 Y55.181 E1.01824 F315.000
G1 X39.306 Y54.858 E1.03653
G1 X39.542 Y54.568 E1.05491
G1 X39.813 Y54.318 E1.07300
G1 X40.112 Y54.114 E1.09079
G1 X40.435 Y53.958 E1.10840
G1 X40.778 Y53.852 E1.12598
G1 X40.954 Y53.819 E1.13481
